X: 27
T: PLINN 4
M: 4/4
L: 1/8
Q:1/4=120
K:C 
|:ABcd eeAe|eAd/2e/2d Bde3/2 z/2:|
eedd cABB/2B/2|Beed gge3/2 z/2 |e/2f/2edB cded|B/2c/2dcB A3/2 z/2 A3/2 z
/2 |
eedd cABB/2B/2|Beed gge3/2 z/2 |e/2f/2ed/2e/2d B/2c/2ded|B/2c/2dcB A3/2 
z/2 A3/2|
